!!!!SEGMENT: pl-wn--mus-iii-602--001_kosciuszko-tadeusz--polonaise.krn
!!!cenid: 17xx:2404
!!!COM: Kościuszko, Tadeusz
!!!COM-rismID: pe30014456
!!!CDT: 1746/02/04-1817/10/15
!!!CNT: Polish-Lithuanian
!!!OTL: Polonaise
!!!PDT:
!!!AGN:
!!!SMS-siglum: PL-Wn
!!!SMS-shelfmark: Mus.III.602
!!!SMS-shelfwork: 001 W
!!!SMS-variant:
!!!SMS-altvar:
!!!NIFC-rismSourceID: 990034150
!!!NIFC-islandoraID:
!!!URL-pdf-islandora:
!!!URL-scan: https://polona.pl/item/two-polonoises-a-waltz,MTE1OTEyNQ/0 @EN{Scan on Polona} @PL{Skany w portalu Polona}
!!!ONB-nifc: UWAGA: skan 1
!!!AIN: 1 piano
!!!key: C
**kern	**kern	**dynam
*part1	*part1	*part1
*staff2	*staff1	*
*clefF4	*clefG2	*
*Ipiano	*Ipiano	*
*ICklav	*ICklav	*
*I"	*I"	*
*k[]	*k[]	*
*C:	*C:	*
*M3/4	*M3/4	*
=1	=1	=1
*xywh-[2]:326,612,2385,530	*xywh-[2]:326,612,2385,530	*
!	!LO:TX:a:B:t=Polonoiſe Koſeiuſsko	!
8r	4.g\ 4.cc 4.ee	p
8G\ 8c	.	.
8G\L 8c	.	.
8G\ 8c	8cc\L	.
8G\ 8c	8ee\	.
8G\J 8c	8cc\J	.
=2	=2	=2
8r	(16ee\LL	.
.	16ff\	.
8G\ 8c	16ee\	.
.	16dd\JJ)	.
8G\L 8c	4.cc\	.
8G\ 8c	.	.
8G\ 8c	.	.
8G\J 8c	8cc\ 8ee	.
=3	=3	=3
!	!LO:TX:t=P:problem:ukryty takt 7/8	!
8r	4dd\ 4ff	.
!	!LO:N:vis=[2ee/gg]	!
4G\ 4B	.	.
.	8ryy	.
8G\L 8B	8dd\L 8ff	.
8G\ 8B	8dd\ 8ff	.
8G\ 8B	8dd\ 8ff	.
8G\J 8B	8dd\J 8ff	.
=4	=4	=4
8r	(16ff\LL	.
.	16gg\	.
8G\ 8B	16ff\	.
.	16ee\JJ)	.
8G\L 8B	4.b\ 4.dd	.
8G\J 8B	.	.
8G\L 8B	.	.
8G\J 8B	8dd\ 8ff	.
=5	=5	=5
!LO:TX:t=P:problem:mixed beam	!	!
8C/L	4g\ 4cc 4ee	f
8c\J	.	.
!LO:TX:t=P:problem:mixed beam	!	!
8C/L	(16ee\LL	.
.	16ff\	.
8c\J	16ee\	.
.	16dd\JJ)	.
!LO:TX:t=P:problem:mixed beam	!	!
8C/L	(16ee\LL	.
.	16ff\	.
8c\J	16ee\	.
.	16dd\JJ)	.
*xywh-[2]:230,1131,2493,512	*xywh-[2]:230,1131,2493,512	*
!LO:LB:g=original	!LO:LB:g=original	!
=6	=6	=6
!LO:TX:t=P:problem:mixed beam	!	!
8C/L	16ee\LL	.
.	16ff\	.
8c\J	16ee\	.
.	16dd\JJ	.
!LO:TX:t=P:problem:mixed beam	!	!
8C/L	4.e/ 4.cc	.
8c\J	.	.
!LO:TX:t=P:problem:mixed beam	!	!
8C/L	.	.
8c\J	8cc\ 8ee	.
=7	=7	=7
16D\LL	4g\ 4b 4dd	.
16B\	.	.
16G\	.	.
16B\JJ	.	.
16D\LL	(16dd\LL	.
16B\	16cc#X\	.
16G\	16dd\	.
16B\JJ	16b\JJ)	.
16D\LL	8g/L	.
16B\	.	.
16G\	16a/L	.
16B\JJ	16b/JJ	.
=8	=8	=8
16E\LL	8e/L 8cc	.
16c\	.	.
16G\	8e/J 8cc	.
16c\JJ	.	.
16E\LL	8cc\L 8ee	.
16c\	.	.
16G\	8cc\J 8ee	.
16c\JJ	.	.
16E\LL	8ee\L 8gg	.
16c\	.	.
16G\	8cc;\J 8ee	.
16c\JJ	.	.
=9	=9	=9
8D\J 8G 8B	4g\ 4b 4dd	.
8D\ 8G 8B	.	.
8D\ 8G 8B	(16dd\LL	.
.	16cc#X\	.
8D\ 8G 8B	16dd\	.
.	16b\JJ)	.
8D\ 8G 8B	(8g/L	.
8D\J 8G 8B	16a/L	.
.	16b/JJ)	.
=10	=10	=10
8c\L	(16ccn\LL	.
.	16b\)	.
8G\J	16ee|\	.
.	16dd|\JJ	.
8E\L	4f/ 4dd	.
8G\J	.	.
4C;/	4e;/ 4cc	.
*xywh-[2]:224,1608,2505,536	*xywh-[2]:224,1608,2505,536	*
!LO:LB:g=original	!LO:LB:g=original	!
=11:|!|:	=11:|!|:	=11:|!|:
!LO:TX:t=P:problem:mixed beam	!	!
8AA/L	8e/ 8ee	.
8A\J	16ee\LL	.
.	16dd#X\JJ	.
!LO:TX:t=P:problem:mixed beam	!	!
8AA/L	8f/L 8ee	.
8A\	8g#X/ 8gg#X	.
!LO:TX:t=P:problem:mixed beam	!	!
8AA/	8a/ 8aa	.
8A\J	8g#/J 8gg#	.
=12	=12	=12
!LO:TX:t=P:problem:mixed beam	!	!
8AA/L	16aa\LL	.
.	16bb\	.
8A\J	16ccc\	.
.	16bb\JJ	.
!LO:TX:t=P:problem:mixed beam	!	!
8AA/L	4.aa\	.
8A\	.	.
!LO:TX:t=P:problem:mixed beam	!	!
8AA/	.	.
8A\J	8ee\	.
=13	=13	=13
8A\L	16aa\LL	.
.	16bb\	.
8E\J	16ccc\	.
.	16bb\JJ	.
8A\L	16aa\LL	.
.	16bb\	.
8E\J	16ccc\	.
.	16bb\JJ	.
8A\L	8.aa\L	.
8A\J	.	.
.	16ggn\Jk	.
=14	=14	=14
8D/L	(16ff#X\LL	.
.	16gg\)	.
8AA/J	(16bb\	.
.	16aa\JJ)	.
8D\L	4cc\ 4aa	.
8F#X\J	.	.
16G\LL	4b\ 4gg	.
16Fn\	.	.
16E\	.	.
16D\JJ	.	.
!LO:LB:g=original	!LO:LB:g=original	!
*xywh-[2]:337,2103,2385,530	*xywh-[2]:337,2103,2385,530	*
==15	==15	==15
!	!LO:TX:a:B:t=Trio	!
!	!LO:TX:a:t=Da Capo	!
4C/	4g\ 4cc 4ee	.
4c\	(16cc\LL 16ee	.
.	16dd\ 16ff	.
.	16ee\ 16gg	.
.	16ff\JJ) 16aa	.
8c\L	8ee\L 8gg	.
8B\J	8dd\J 8ff	.
=16	=16	=16
!LO:TX:t=P:problem:mixed beam	!	!
8G\L	8cc\L 8ee	.
8G\	8cc\J 8ee	.
8GG/	8b\L 8dd	.
8GG/J	8b\J 8gg	.
8C/L	8e/L 8cc	.
8BB/J	8g/J 8dd	.
=17	=17	=17
4C/	4cc\ 4ee	.
4c\	(16cc\LL 16ee	.
.	16dd\ 16ff	.
.	16ee\ 16gg	.
.	16ff\JJ) 16aa	.
4C/	8ee\L 8gg	.
.	8dd\J 8ff	.
=18	=18	=18
!LO:TX:t=P:problem:mixed beam	!	!
8G\L	8cc\L 8ee	.
8G\	8cc\J 8ee	.
8GG/	8b\L 8dd	.
8GG/J	8b\J 8gg	.
4C/	4e/ 4cc	.
*xywh-[2]:224,2652,2516,477	*xywh-[2]:224,2652,2516,477	*
!LO:LB:g=original	!LO:LB:g=original	!
=19:|!|:	=19:|!|:	=19:|!|:
16BB\LL	8dd|\L 8ff	.
16G\	.	.
16D\	(16dd\L 16ff	.
16G\JJ	16cc\JJ) 16ee	.
16BB\LL	4.dd\ 4.ff	.
16G\	.	.
16D\	.	.
16G\JJ	.	.
16BB\LL	.	.
16G\	.	.
16D\	8b\ 8dd	.
16G\JJ	.	.
=20	=20	=20
16C\LL	8cc|\L 8ee	.
16G\	.	.
16E\	(16cc\L 16ee	.
16G\JJ	16b\JJ) 16dd	.
16C\LL	4.cc\ 4.ee	.
16G\	.	.
16E\	.	.
16G\JJ	.	.
16C\LL	.	.
16G\	.	.
16E\	8cc\	.
16G\JJ	.	.
=21	=21	=21
4FF/ 4F	8ff\L 8aa	.
.	8ee\ 8gg	.
4FF/ 4F	8dd\ 8ff	.
.	8cc\ 8ee	.
4FF#X/ 4F#X	8b\ 8dd	.
.	8a\J 8cc	.
=22	=22	=22
4GG/ 4G	8b\L	.
.	8gg\J	.
8D/L	16ff#X\LL	.
.	16gg\J	.
8BB/J	8ggT\J	.
4GG/	4g/	.
*xywh-[2]:182,3159,2600,530	*xywh-[2]:182,3159,2600,530	*
!LO:LB:g=original	!LO:LB:g=original	!
=23	=23	=23
4C/	4g\ 4cc 4ee	.
4c\	16cc\LL 16ee	.
.	16dd\ 16ff	.
.	16ee\ 16gg	.
.	16ff\JJ 16aa	.
8c\L	8ee\L 8gg	.
8B\J	8dd\J 8ff	.
=24	=24	=24
!LO:TX:t=P:problem:mixed beam	!	!
8G\L	8cc\L 8ee	.
8G\	8cc\J 8ee	.
8GG/	8b\L 8dd	.
8GG/J	8b\J 8gg	.
8C/L	8e/L 8cc	.
8BB/J	8g/J 8dd	.
=25	=25	=25
4C/	4cc\ 4ee	.
4c\	16cc\LL 16ee	.
.	16dd\ 16ff	.
.	16ee\ 16gg	.
.	16ff\JJ 16aa	.
4C/	8ee\L 8gg	.
.	8dd\J 8ff	.
=26	=26	=26
!LO:TX:t=P:problem:mixed beam	!	!
8G\L	8cc\L 8ee	.
8G\	8cc\J 8ee	.
8GG/	8b\L 8dd	.
8GG/J	8b\J 8gg	.
!	!LO:TX:a:B:t=Polo&colon; D Capo	!
4C/	4e/ 4cc	.
*xywh-[3]:292,525,2441,619	*xywh-[3]:292,525,2441,619	*
!LO:PB:g=original	!LO:PB:g=original	!
==27	==27	==27
*k[b-e-]	*k[b-e-]	*
*B-:	*B-:	*
!LO:TX:t=P:problem:mixed beam	!	!
!	!LO:TX:a:B:t=Polonoiſe Koſeiuſsko	!
8B-\L	8bb-\L	.
16BB-/L	16b-\L	.
16D/JJ	16dd\JJ	.
8F\L	8ff\L	.
8F\	8ff\	.
8D\	8dd\	.
8BB-\J	8b-\J	.
=28	=28	=28
8E-\L	8.gg\L	.
8C\J	.	.
.	16ee-\Jk	.
!LO:TX:t=P:problem:mixed beam	!	!
8F\L	(16cc\LL	.
.	16ee-\)	.
8FF/J	(16a\	.
.	16cc\JJ)	.
!LO:TX:t=P:problem:mixed beam	!	!
8BB-/L	4b-\	.
8B-\J	.	.
==29	==29	==29
16BB-\LL	8b-\L 8dd	.
16F\	.	.
16D\	8b-\J 8dd	.
16F\JJ	.	.
16BB-\LL	4.b-\ 4.dd	.
16F\	.	.
16D\	.	.
16F\JJ	.	.
16BB-\LL	.	.
16F\	.	.
16D\	16cc\LL	.
16F\JJ	16b-\JJ	.
=30	=30	=30
16AA\LL	8cc\L 8ee-	.
16F\	.	.
16C\	8cc\J 8ee-	.
16F\JJ	.	.
16AA\LL	4.cc\ 4.ee-	.
16F\	.	.
16C\	.	.
16F\JJ	.	.
16AA\LL	.	.
16F\	.	.
16C\	8b-\ 8dd	.
16F\JJ	.	.
*xywh-[3]:257,1114,2548,518	*xywh-[3]:257,1114,2548,518	*
!LO:LB:g=original	!LO:LB:g=original	!
=31	=31	=31
16AA\LL	8a\L 8cc	.
16F\	.	.
16C\	8a\J 8cc	.
16F\JJ	.	.
16AA\LL	4.a\ 4.cc	.
16F\	.	.
16C\	.	.
16F\JJ	.	.
16AA\LL	.	.
16F\	.	.
16C\	16dd\LL	.
16F\JJ	16ee-\JJ	.
=32	=32	=32
!LO:TX:t=P:problem:mixed beam	!	!
8D\L	8dd\L 8ff	.
8BB-\	8ee-\ 8gg	.
8E-\	8dd\ 8ff	.
8C\	8cc\ 8ee-	.
8F\	8b-\ 8dd	.
8FF/J	8a\J 8cc	.
=33	=33	=33
8BB-\L 8D 8F	8.b-\L	.
8BB-\ 8D 8F	.	.
.	16dd\Jk	.
8BB-\ 8D 8F	(16ee-\LL	.
.	16dd\	.
8BB-\ 8D 8F	16cc\	.
.	16dd\JJ)	.
8BB-\ 8D 8F	(16ee-\LL	.
.	16dd\	.
8BB-\J 8D 8F	16cc\	.
.	16dd\JJ)	.
=34	=34	=34
8AA/L 8C 8F	16ee-\LL	.
.	16dd\	.
8AA/ 8C 8F	16ee-\	.
.	16ff\JJ	.
8AA/ 8C 8F	16ee-\LL	.
.	16dd\	.
8AA/ 8C 8F	16ee-\	.
.	16ff\JJ	.
8AA/ 8C 8F	16ee-\LL	.
.	16dd\	.
8AA/J 8C 8F	16cc\	.
.	16b-\JJ	.
*xywh-[3]:275,1615,2501,470	*xywh-[3]:275,1615,2501,470	*
!LO:LB:g=original	!LO:LB:g=original	!
=35	=35	=35
4FF/	8b-\L	.
.	8a\J 8cc	.
4F\	8a\L 8cc	.
.	8a\J 8cc	.
4FF/	(16cc\LL	.
.	16a\	.
.	16b-\	.
.	16cc\JJ)	.
=36	=36	=36
8D\L	16b-/LL	.
.	16f/	.
8F\J	16dd/	.
.	16cc/JJ	.
.	8qqcc/	.
*	*2\right	*
8B-\L	2b-;\	.
8F\J	.	.
4BB-;/	.	.
=37:|!|:	=37:|!|:	=37:|!|:
!LO:TX:t=P:problem:mixed beam	!	!
8FF/L	8a\L 8cc	.
8F\J	8a\J 8cc	.
!LO:TX:t=P:problem:mixed beam	!	!
8FF/L	4.a\ 4.cc	.
8F\J	.	.
!LO:TX:t=P:problem:mixed beam	!	!
8FF/L	.	.
8F\J	8bn\ 8dd	.
=38	=38	=38
!LO:TX:t=P:problem:mixed beam	!	!
8FF/L	8dd\L 8ff	.
8F\J	8een\J	.
!LO:TX:t=P:problem:mixed beam	!	!
8FF/L	4.cc\ 4.ee-X	.
8F\J	.	.
!LO:TX:t=P:problem:mixed beam	!	!
8FF/L	.	.
8F\J	8bn\ 8dd	.
*xywh-[3]:233,2109,2536,464	*xywh-[3]:233,2109,2536,464	*
!LO:LB:g=original	!LO:LB:g=original	!
=39	=39	=39
!LO:TX:t=P:problem:mixed beam	!	!
8FF/L	8b-\L 8dd	.
8F\J	8b-\J 8dd	.
!LO:TX:t=P:problem:mixed beam	!	!
8FF/L	4.b-\ 4.dd	.
8F\J	.	.
!LO:TX:t=P:problem:mixed beam	!	!
8FF/L	.	.
8F\J	8cc\ 8ee-	.
=40	=40	=40
!LO:TX:t=P:problem:mixed beam	!	!
8FF/L	8ee-\L 8gg	.
8F\J	8dd\J 8ff	.
!LO:TX:t=P:problem:mixed beam	!	!
8FF/L	4.dd\ 4.ff	.
8F\J	.	.
8F\L	.	.
8D\J	8cc\ 8ee-	.
*xywh-[3]:364,2544,2435,547	*xywh-[3]:364,2544,2435,547	*
!LO:LB:g=original	!LO:LB:g=original	!
==41	==41	==41
!	!LO:TX:a:B:t=Trio	!
!	!LO:TX:a:t=D.S.	!
8D/L	8dd\L 8ff	.
8BB-/J	8dd\J 8ff	.
8E-/L	8ee-\L 8gg	.
8C/J	8ee-\J 8gg	.
!LO:TX:t=P:problem:mixed beam	!	!
8F\L	8ee-\L	.
8FF/J	8cc\J	.
=42	=42	=42
16BB-\LL	(8b-\L	.
16F\	.	.
16D\	8dd\J	.
16F\JJ	.	.
16BB-\LL	8cc\L	.
16F\	.	.
16D\	8dd\J)	.
16F\JJ	.	.
16BB-\LL	4b-\ 4dd	.
16F\	.	.
16D\	.	.
16F\JJ	.	.
=43	=43	=43
8D/L	8dd\L 8ff	.
8BB-/J	8dd\J 8ff	.
8E-/L	8ee-\L 8gg	.
8C/J	8ee-\J 8gg	.
!LO:TX:t=P:problem:mixed beam	!	!
8F\L	8ee-\L	.
8FF/J	8cc\J	.
=44	=44	=44
16BB-\LL	8b-\L	.
16F\	.	.
16D\	8dd\	.
16F\JJ	.	.
16BB-\LL	8cc\	.
16F\	.	.
16D\	8dd\J	.
16F\JJ	.	.
16BB-\LL	4b-\	.
!	!LO:LB:g=original	!
16F\	.	.
16D\	.	.
16F\JJ	.	.
*xywh-[3]:221,3068,2608,547	*xywh-[3]:221,3068,2608,547	*
!LO:LB:g=original	!	!
=45	=45	=45
4FF/ 4F	8ff\L	.
.	16aa\L	.
.	16aa\JJ	.
4FF/ 4F	8aa\L	.
.	8aa\J	.
4FF/ 4F	16aa\LL	.
.	16ff\	.
.	16gg\	.
.	16aa\JJ	.
=46	=46	=46
8BB-/L 8D 8F	8.bb-\L	.
8BB-/ 8D 8F	.	.
.	16aa\Jk	.
8BB-/ 8D 8F	16bb-\LL	.
.	16aa\	.
8BB-/ 8D 8F	16gg\	.
.	16ff\JJ	.
8BB-/ 8D 8F	16ee-\LL	.
.	16dd\	.
8BB-/J 8D 8F	16cc\	.
.	16b-\JJ	.
=47	=47	=47
4FF/ 4F	8ff\L	.
.	16aa\L	.
.	16aa\JJ	.
4FF/ 4F	16aa\LL	.
.	16ff\	.
.	16gg\	.
.	16aa\JJ	.
8D/L	16bb-\LL	.
.	16aa\	.
8BB-/J	16gg\	.
.	16ff\JJ	.
=48	=48	=48
8E-\L	16ff\LL	.
.	16ee-\	.
8F\J	16dd\	.
.	16cc\JJ	.
!	!LO:SIC:v:t=custos ac	!
.	8qqcc/	.
8B-\L	2b-\	.
8F\J	.	.
!	!LO:SIC:v:t=custos FF	!
4BB-/	.	.
*xywh-[4]:264,520,2483,489	*xywh-[4]:264,520,2483,489	*
!LO:PB:g=original	!LO:PB:g=original	!
=49:|!|:	=49:|!|:	=49:|!|:
!LO:TX:t=P:problem:mixed beam	!	!
8FF/L	(8a\L 8cc	.
8F\J	8cc\J) 8ee-	.
!LO:TX:t=P:problem:mixed beam	!	!
8FF/L	8cc\L 8ee-	.
8F\J	8a\J 8cc	.
!LO:TX:t=P:problem:mixed beam	!	!
8FF/L	8cc\L	.
8F\J	8a\J	.
=50	=50	=50
16BB-\LL	8b-\L	.
16F\	.	.
16D\	8dd\	.
16F\JJ	.	.
16BB-\LL	8ff\	.
16F\	.	.
16D\	8bb-\J	.
16F\JJ	.	.
16BB-\LL	4ff\	.
16F\	.	.
16D\	.	.
16F\JJ	.	.
=51	=51	=51
!LO:TX:t=P:problem:mixed beam	!	!
8FF/L	8a\L 8cc	.
8F\J	8cc\J 8ee-	.
!LO:TX:t=P:problem:mixed beam	!	!
8FF/L	8cc\L 8ee-	.
8F\J	8a\J 8cc	.
!LO:TX:t=P:problem:mixed beam	!	!
8FF/L	8cc\L	.
8F\J	8a\J	.
=52	=52	=52
16BB-\LL	8b-\L	.
16F\	.	.
16D\	8dd\	.
16F\JJ	.	.
16BB-\LL	8ff\	.
16F\	.	.
16D\	8bb-\J	.
16F\JJ	.	.
16BB-\LL	4ff\	.
16F\	.	.
16D\	.	.
16F\JJ	.	.
*xywh-[4]:293,996,2453,441	*xywh-[4]:293,996,2453,441	*
!LO:LB:g=original	!LO:LB:g=original	!
=53	=53	=53
8D/L	8dd\L 8ff	.
8BB-/J	8dd\J 8ff	.
8E-/L	8ee-\L 8gg	.
8C/J	8ee-\J 8gg	.
!LO:TX:t=P:problem:mixed beam	!	!
8F\L	8ee-\L	.
8FF/J	8cc\J	.
=54	=54	=54
16BB-\LL	8b-\L	.
16F\	.	.
16D\	8dd\	.
16F\JJ	.	.
16BB-\LL	8cc\	.
16F\	.	.
16D\	8dd\J	.
16F\JJ	.	.
16BB-\LL	4b-\	.
16F\	.	.
16D\	.	.
16F\JJ	.	.
=55	=55	=55
8D/L	8dd\L 8ff	.
8BB-/J	8dd\J 8ff	.
8E-/L	8ee-\L 8gg	.
8C/J	8ee-\J 8gg	.
!LO:TX:t=P:problem:mixed beam	!	!
8F\L	8ee-\L	.
8FF/J	8cc\J	.
=56	=56	=56
16BB-\LL	8b-\L	.
16F\	.	.
16D\	8dd\	.
16F\JJ	.	.
16BB-\LL	8cc\	.
16F\	.	.
16D\	8dd\J	.
16F\JJ	.	.
16BB-\LL	4b-\	.
16F\	.	.
16D\	.	.
16F\JJ	.	.
*xywh-[4]:287,1414,2483,465	*xywh-[4]:287,1414,2483,465	*
!LO:LB:g=original	!LO:LB:g=original	!
=57	=57	=57
4FF/ 4F	8ff\L	.
.	16aa\L	.
.	16aa\JJ	.
4FF/ 4F	8aa\L	.
.	8aa\J	.
4FF/ 4F	(16aa\LL	.
.	16ff\	.
.	16gg\	.
.	16aa\JJ)	.
=58	=58	=58
8BB-/L 8D 8F	8.bb-\L	.
8BB-/ 8D 8F	.	.
.	16aa\Jk	.
8BB-/ 8D 8F	16bb-\LL	.
.	16aa\	.
8BB-/ 8D 8F	16gg\	.
.	16ff\JJ	.
8BB-/ 8D 8F	16ee-\LL	.
.	16dd\	.
8BB-/J 8D 8F	16cc\	.
.	16b-\JJ	.
=59	=59	=59
4FF/ 4F	8ff\L	.
.	8aa\J	.
4FF/ 4F	(16aa\LL	.
.	16ff\	.
.	16gg\	.
.	16aa\JJ)	.
8D/L	(16bb-\LL	.
.	16aa\)	.
8BB-/J	(16gg\	.
.	16ff\JJ)	.
=60	=60	=60
8E-\L	16ee-\LL	.
.	16dd\	.
8F\J	16cc\	.
.	16b-\JJ	.
!	!LO:TX:a:B:t=Polonoiſe D.C.	!
.	8qcc/	.
8B-\L	2b-;\	.
8F\J	.	.
4BB-;/	.	.
*xywh-[4]:484,1838,2310,459	*xywh-[4]:484,1838,2310,459	*
!LO:LB:g=original	!LO:LB:g=original	!
=61:|!|:	=61:|!|:	=61:|!|:
*k[f#]	*k[f#]	*
*G:	*G:	*
*M3/8	*M3/8	*
!	!LO:TX:a:B:t=Waltz	!
8r	16g/LL	.
.	16b/JJ	.
=62	=62	=62
8G\L 8B 8d	16dd\LL	.
.	16b\	.
8G\ 8B 8d	16dd\	.
.	16b\	.
8G\J 8B 8d	16dd\	.
.	16b\JJ	.
=63	=63	=63
8G\L 8B 8d	8.gg\L	.
8G\ 8B 8d	.	.
.	16bb\L	.
8G\J 8B 8d	16aa\	.
.	16gg\JJ	.
=64	=64	=64
8D/L	8dd\L 8ff#	.
8D/	8dd\ 8ff#	.
8D/J	8dd\J 8ff#	.
=65	=65	=65
8D/L	8.a\L 8.ff#	.
8D/	.	.
.	16dd\L	.
8D/J	16ee\	.
.	16ff#\JJ	.
=66	=66	=66
8D/L	16aa\LL	.
.	16gg\	.
8D/	16ff#\	.
.	16gg\	.
8D/J	16aa\	.
.	16ff#\JJ	.
=67	=67	=67
8D/L	8.ccc\L	.
8D/	.	.
.	16aa\L	.
8D/J	16gg\	.
.	16ff#\JJ	.
=68	=68	=68
8G\L	8b\L 8dd 8gg	.
8G\	8b\ 8dd 8gg	.
8G\J	8b\J 8dd 8gg	.
=	=	=
!	!LO:SIC:v:t=custos cc	!
4G\	4b\ 4dd 4gg	.
*xywh-[4]:287,2309,2495,429	*xywh-[4]:287,2309,2495,429	*
!LO:LB:g=original	!LO:LB:g=original	!
=69:|!|:	=69:|!|:	=69:|!|:
8r	16cc\LL	.
.	16a\JJ	.
=70	=70	=70
8D/L	8d/L 8f#	.
8D/J	8d/ 8f#	.
8r	16f#/L	.
.	16a/JJ	.
=71	=71	=71
8G\L	8dd\L	.
8G\	16dd\L	.
.	16dd\	.
8G\J	16gg\	.
.	16dd\JJ	.
=72	=72	=72
!LO:TX:t=P:problem:mixed beam	!	!
8DD/L	8a\L 8cc	.
8D\J	8a\ 8cc	.
8r	16a\L	.
.	16cc\JJ	.
=73	=73	=73
!LO:TX:t=P:problem:mixed beam	!	!
8GG/L	4g/ 4b	.
8G\J	.	.
8r	8dd\	.
=74	=74	=74
4G\ 4B 4d	16gg\LL	.
.	16dd\	.
.	16bb\	.
.	16dd\	.
8r	16aa\	.
.	16dd\JJ	.
=75	=75	=75
4G\ 4e	16gg\LL	.
.	16dd\	.
.	16ff#\	.
.	16dd\	.
8r	16gg\	.
.	16dd\JJ	.
=76	=76	=76
4F#\ 4A 4d	16aa\LL	.
.	16dd\	.
.	16gg\	.
.	16dd\	.
8r	16ff#\	.
.	16dd\JJ	.
=	=	=
!LO:TX:t=P:problem:mixed beam	!	!
8G\L	4gg\	.
8GG/J	.	.
*xywh-[4]:299,2715,2441,453	*xywh-[4]:299,2715,2441,453	*
!LO:LB:g=original	!LO:LB:g=original	!
=77:|!|:	=77:|!|:	=77:|!|:
*k[]	*k[]	*
*C:	*C:	*
8r	8gg\	.
*clefG2	*	*
=78	=78	=78
8c/L 8e 8g	16gg\LL	.
.	16ee\	.
8c/ 8e 8g	16ff\	.
.	16gg\	.
8c/J 8e 8g	16aa\	.
.	16bb\JJ	.
=79	=79	=79
8c/L 8e 8g	4ccc\	.
8c/ 8e 8g	.	.
8c/J 8e 8g	16ddd\LL	.
.	16eee\JJ	.
=80	=80	=80
8B/L 8d 8g	16ddd\LL	.
.	16ccc\	.
8B/ 8d 8g	16bb\	.
.	16ccc\	.
8B/J 8d 8g	16fff\	.
.	16ccc\JJ	.
=81	=81	=81
8c/L 8e 8g	8ccc\L	.
8c/ 8e 8g	8eee\	.
8c/J 8e 8g	8gg\J	.
=82	=82	=82
8c/L 8e 8g	16gg\LL	.
.	16ee\	.
8c/ 8e 8g	16ff\	.
.	16gg\	.
8c/J 8e 8g	16aa\	.
.	16bb\JJ	.
=83	=83	=83
8c/L 8e 8g	4ccc\	.
8c/ 8e 8g	.	.
8c/J 8e 8g	16ddd\LL	.
.	16eee\JJ	.
=84	=84	=84
8B/L 8d 8g	16ddd\LL	.
.	16ccc\	.
8B/ 8d 8g	16bb\	.
.	16ccc\	.
8B/J 8d 8g	16fff\	.
.	16ddd\JJ	.
=85	=85	=85
4c/ 4e 4g	4ccc\	.
*xywh-[4]:281,3151,2459,501	*xywh-[4]:281,3151,2459,501	*
!LO:LB:g=original	!LO:LB:g=original	!
=86:|!|:	=86:|!|:	=86:|!|:
8gg\L 8bb 8ddd	16gg\LL	.
.	16bb\	.
8gg\ 8bb 8ddd	16gg\	.
.	16bb\	.
8gg\J 8bb 8ddd	16gg\	.
.	16bb\JJ	.
=87	=87	=87
8gg\L 8ccc 8eee	16ccc\LL	.
.	16eee\	.
8gg\ 8ccc 8eee	16ccc\	.
.	16eee\	.
8gg\J 8ccc 8eee	16fff\	.
.	16ddd\JJ	.
=88	=88	=88
8gg\L 8bb 8ddd	16gg\LL	.
.	16bb\	.
8gg\ 8bb 8ddd	16gg\	.
.	16bb\	.
8gg\J 8bb 8ddd	16gg\	.
.	16bb\JJ	.
=89	=89	=89
8gg\L 8ccc 8eee	16ccc\LL	.
.	16eee\	.
8gg\ 8ccc 8eee	16ccc\	.
.	16eee\	.
8gg\J 8ccc 8eee	16fff\	.
.	16ddd\JJ	.
=90	=90	=90
*clefG2	*	*
8c/L 8e 8g	16gg\LL	.
.	16ee\	.
8c/ 8e 8g	16ff\	.
.	16gg\	.
8c/J 8e 8g	16aa\	.
.	16bb\JJ	.
=91	=91	=91
8c/L 8e 8g	4ccc\	.
8c/ 8e 8g	.	.
8c/J 8e 8g	16ddd\LL	.
.	16eee\JJ	.
=92	=92	=92
8B/L 8d 8g	16ddd\LL	.
.	16ccc\	.
8B/ 8d 8g	16bb\	.
.	16ccc\	.
8B/J 8d 8g	16fff\	.
.	16ddd\JJ	.
*clefF4	*	*
=93	=93	=93
8C/L	4eee;\	.
8CC;/J	.	.
=:|!	=:|!	=:|!
*-	*-	*-
!!!system-decoration: {(s1,s2)}
!!!RDF**kern: | = vertical stroke
!!!ENC: Arkadiusz Malec
!!!END: 2022-05-05
!!!ENC: Julita Ruszuk
!!!END: 2022-07-04
!!!IIIF: https://polona.pl/iiif/item/MTE1OTEyNQ/manifest.json
!!!ENC-iiif: Konrad Tyszka
!!!END-iiif: 2022-08-23
